X:154
T:score235
L:1/8
Q:1/4=96
M:3/4
I:linebreak $
K:E
!f! (G |!<(! d3 c/d/ ^ed/e/ | f^e/f/ gf/g/ aA)!<)! | (!>!G2- (3G.^A.^B (3.c.d.=e |$ d6) | %5
!p! (3(ddd dc/d/ ^ed/e/ | f^e/f/"^poco riten." gf/g/ ag/a/) |!pp! (3(b!<(!a=g (3Pf=ef A=d)!<)! |$ %8
 (3(c^Be!>(! ^d2 c)!>)! z |] %9
